svg/u1f923.svg

<svg viewBox="0 0 128 128" xmlns="http://www.w3.org/2000/svg">
  <g id="gold">
    <radialGradient id="face_1_" cx="-240.7803" cy="288.7169" gradientTransform="matrix(0.71 -0.71 0.71 0.71 28.09 -314.89)" gradientUnits="userSpaceOnUse" r="56.96">
      <stop offset="0.5" stop-color="#FDE030"/>
      <stop offset="0.92" stop-color="#F7C02B"/>
      <stop offset="1" stop-color="#F4A223"/>
    </radialGradient>
    <path id="face" d="M103.13,102.43c-19.73,19.73-53.39,28.64-80.54,1.48S4.34,43.1,24.07,23.37 C35,12.41,48.75,5.91,62.82,5c15.35-0.92,29.84,4.95,41.79,16.9s17.75,26.37,16.83,41.72C120.52,77.68,114,91.54,103.13,102.43z" fill="url(#face_1_)"/>
    <path d="M74,5.54c9.84,2.31,19,7.59,27.11,15.64c12,12,17.75,26.38,16.83,41.72 C117,77,110.48,90.83,99.59,101.72c-12.77,12.77-31.38,21-50.29,17.85c20.1,4.88,40.26-3.57,53.83-17.14 c10.87-10.89,17.39-24.75,18.31-38.82c0.92-15.35-4.88-29.77-16.83-41.72C95.6,12.88,85.14,7.33,74,5.54z" fill="#EB8F00"/>
    <path d="M96.71,39.56c-2.77-0.8-5.71,0.57-6.88,3.21c-5.15,9.37-11.62,17.94-19.21,25.47 c-7.52,7.59-16.1,14.06-25.47,19.2c-2.63,1.18-3.99,4.11-3.21,6.88c0.82,2.75,3.57,4.1,6.16,5.07 c14.51,5.43,30.48,1.39,42.75-10.81l0.12-0.11c12.19-12.27,16.23-28.24,10.8-42.76C100.81,43.13,99.45,40.37,96.71,39.56z" fill="#422B0D"/>
    <path d="M90.08,87.58l-0.06,0.06v0.06L90.08,87.58z" fill="#422B0D"/>
    <path d="M71.61,69l-0.11,0.1l-0.1,0.11L71.61,69z" fill="#422B0D"/>
    <path d="M71.61,69l-0.11,0.1l-0.1,0.11L71.61,69z" fill="#422B0D"/>
    <path d="M90.08,87.58l-0.06,0.06v0.06L90.08,87.58z" fill="#422B0D"/>
    <path d="M97.92,74.49c4.34-8.69,4.88-18.79,1.51-27.9C98.37,43.74,97.34,42.35,96,42 c-1.63-0.44-3.33,0.42-3.95,2c-5.23,9.56-11.8,18.31-19.52,26l0,0l-0.2,0.21l0,0c-7.7,7.7-16.46,14.25-26.02,19.45 c-0.42,0.21-0.81,0.49-1.14,0.82c-0.87,0.79-1.2,2.01-0.84,3.13C44.74,95,46.12,96,49,97.05c8.93,3.3,18.83,2.84,27.41-1.29 c0.64-5.57,3.2-10.75,7.24-14.63C87.41,77.22,92.5,74.85,97.92,74.49z" fill="none"/>
    <path d="M99.4,74.38c-0.51,0-1,0.07-1.48,0.11c-5.43,0.35-10.53,2.72-14.3,6.64 c-4.04,3.88-6.6,9.06-7.24,14.63c-0.06,0.49-0.12,1-0.15,1.48s0.08,0.88,0.14,1.28c5.41-2.38,10.32-5.75,14.48-9.94l0.12-0.11 c4.01-3.99,7.27-8.67,9.62-13.81C100.2,74.54,99.8,74.45,99.4,74.38z" fill="#ED7770"/>
    <path d="M89.83,42.77c-5.15,9.37-11.62,17.94-19.21,25.47c-7.52,7.59-16.1,14.06-25.47,19.2 c-2.63,1.18-3.99,4.11-3.21,6.88c0.13,0.41,0.3,0.8,0.52,1.17c0.41-0.14,0.8-0.3,1.19-0.49C56.42,90.76,68,83.54,77.41,73.92 C86.64,64.89,93.68,53.88,98,41.71c0.17-0.41,0.32-0.83,0.45-1.26c-0.52-0.4-1.11-0.71-1.74-0.89C93.94,38.76,91,40.13,89.83,42.77 z" fill="#FFFFFF"/>
    <path d="M71.4,69.74L71.4,69.74c5.87-5.68,9.71-11.26,14.33-18.06c1.15-1.7,2.24-3.44,3.29-5.23l0.76-1.35 c0.2-0.35,0.42-0.69,0.68-1c0.46-0.57,1.05-1.01,1.73-1.29c1.58-0.58,3.31-0.61,4.91-0.08c3.25,1.56,6.08,7.12,5.72,6.08 c0,0-0.59-2.33-0.61-2.36c-0.8-2-1.62-4.26-3.69-6c-2.22-1.69-5.18-2.03-7.72-0.88c-1.19,0.54-2.22,1.37-3,2.41 c-0.38,0.48-0.72,1-1,1.55l-0.67,1.32c-0.93,1.75-1.92,3.48-3,5.17c-3.84,6.41-8.37,12.38-13.51,17.8l0,0l-0.16,0.16l0,0 C64.15,73.06,58.3,77.53,52,81.31c-1.7,1-3.42,2-5.17,3L45.47,85c-0.55,0.28-1.07,0.61-1.55,1c-1.05,0.78-1.88,1.81-2.42,3 c-1.07,2.52-0.69,5.43,1,7.59c2.69,3.51,8.83,4,8.86,4c1,0.36-5.06-2.22-6.62-5.47c-0.55-1.54-0.55-3.23,0-4.77 c0.26-0.7,0.69-1.32,1.26-1.8c0.31-0.26,0.65-0.48,1-0.67l1.35-0.76c1.78-1,3.52-2.15,5.23-3.3c6.79-4.62,12-8,17.65-13.92" fill="#EB8F00"/>
  </g>
  <g id="facial_expressions">
    <radialGradient id="SVGID_1_" cx="-641.5851" cy="-742.5024" gradientTransform="matrix(-0.13 -0.99 -1.53 0.21 -1141.95 -448.74)" gradientUnits="userSpaceOnUse" r="31.6">
      <stop offset="0.46" stop-color="#29B6F6"/>
      <stop offset="1" stop-color="#1E88E5"/>
    </radialGradient>
    <path d="M115.13,31.34c1.2,7.64-5.82,14.88-12.19,15.74c-4.48,0.6-9.48-0.43-17-2.3 c-1.11-0.21-2.24-0.54-3.48-0.85c-4.58-1.27-9.08-2.8-13.49-4.58c-0.87-0.32-1.35-1.24-1.13-2.13c0.13-0.38,0.39-0.71,0.72-0.93 c3.37-3.46,7.17-6.48,11.29-9c10.41-6.44,14.37-7.31,18.85-7.91C104.88,18.37,113.83,23,115.13,31.34z" fill="url(#SVGID_1_)"/>
    <path d="M105.52,24.19c2.91,1.38,2.93,5.37-1.51,6c-2.85,0.38-17.52,1.76-15.81-0.95 C91,24.79,101.41,22.24,105.52,24.19z" fill="#81D4FA"/>
    <path d="M72.65,31.1l-9.23,8.28l3.42-13.15c0.03-0.16,0.06-0.31,0.07-0.47c0.38-2.28-1.17-4.44-3.45-4.81 c-0.54-0.09-1.1-0.07-1.64,0.05c-2.43,0.67-4.19,2.79-4.39,5.3c-0.57,5.81-1.91,19.5-2.43,24.83c-0.16,0.53,0.14,1.09,0.67,1.25 c0.35,0.11,0.73,0.01,0.99-0.25l20.69-13.08l0.41-0.29c2.5-1.92,3.11-5.58,1.09-7.7C77.31,29.44,74.65,29.57,72.65,31.1z" fill="#422B0D"/>
    <radialGradient id="SVGID_2_" cx="-764.2186" cy="-690.2555" gradientTransform="matrix(-1 0.08 -0.13 -1.53 -814.51 -921.26)" gradientUnits="userSpaceOnUse" r="30.26">
      <stop offset="0.46" stop-color="#29B6F6"/>
      <stop offset="1" stop-color="#1E88E5"/>
    </radialGradient>
    <path d="M25.9,104c-0.36-4.31-0.37-8.19,3.52-19.26c1.52-4.38,3.58-8.55,6.13-12.42 c0.14-0.36,0.4-0.66,0.73-0.86c0.79-0.4,1.75-0.13,2.23,0.61c2.57,3.76,4.92,7.66,7.06,11.68c0.54,1.1,1.08,2.08,1.51,3.08 c3.3,6.69,5.29,11.16,5.65,15.47c0.51,6.13-4.82,14.19-12.21,14.65C32.47,117.41,26.28,110,25.9,104z" fill="url(#SVGID_2_)"/>
    <path d="M33,92.17c2.17-2.17,3.9,11.83,4.13,14.58c0.35,4.28-3.39,5.08-5.27,2.65 C29.18,106,29.43,95.69,33,92.17z" fill="#81D4FA"/>
    <g id="eyes">
      <path d="M30.17,78.76l6.66-10.47l-12.41,5.54L24,74c-2.19,0.74-4.57-0.43-5.32-2.62 c-0.18-0.52-0.25-1.07-0.21-1.62c0.26-2.51,2.06-4.59,4.51-5.2L47,58.05c0.5-0.24,1.1-0.03,1.34,0.47 c0.16,0.33,0.13,0.72-0.09,1.01l-9.47,22.55c-0.06,0.16-0.13,0.31-0.21,0.46c-1.48,2.78-5,4-7.42,2.34 C29.3,83.62,29,81,30.17,78.76z" fill="#422B0D"/>
    </g>
  </g>
</svg>

<svg viewBox="0 0 128 128" xmlns="http://www.w3.org/2000/svg">
  <defs>
    <radialGradient id="face_1_" cx="0.754911" cy="86.745069" gradientTransform="matrix(0.71 -0.71 0.71 0.71 0 0)" gradientUnits="userSpaceOnUse" r="56.96">
      <stop offset="0.5" stop-color="#FDE030"/>
      <stop offset="0.92" stop-color="#F7C02B"/>
      <stop offset="1" stop-color="#F4A223"/>
    </radialGradient>
    <radialGradient id="SVGID_1_" cx="-40.818758" cy="-47.175357" gradientTransform="matrix(-0.13 -0.99 -1.53 0.21 0 0)" gradientUnits="userSpaceOnUse" r="31.6">
      <stop offset="0.46" stop-color="#29B6F6"/>
      <stop offset="1" stop-color="#1E88E5"/>
    </radialGradient>
    <radialGradient id="SVGID_2_" cx="-32.956266" cy="-49.888842" gradientTransform="matrix(-1 0.08 -0.13 -1.53 0 0)" gradientUnits="userSpaceOnUse" r="30.26">
      <stop offset="0.46" stop-color="#29B6F6"/>
      <stop offset="1" stop-color="#1E88E5"/>
    </radialGradient>
  </defs>
  <path id="face" d="M103.13,102.43 C83.4,122.16 49.74,131.07 22.59,103.91 C-4.56,76.75 4.34,43.1 24.07,23.37 C35,12.41 48.75,5.91 62.82,5 C78.17,4.08 92.66,9.95 104.61,21.9 C116.56,33.85 122.36,48.27 121.44,63.62 C120.52,77.68 114,91.54 103.13,102.43 Z" fill="url(#face_1_)"/>
  <path d="M74,5.54 C83.84,7.85 93,13.13 101.11,21.18 C113.11,33.18 118.86,47.56 117.94,62.9 C117,77 110.48,90.83 99.59,101.72 C86.82,114.49 68.21,122.72 49.3,119.57 C69.4,124.45 89.56,116 103.13,102.43 C114,91.54 120.52,77.68 121.44,63.61 C122.36,48.26 116.56,33.84 104.61,21.89 C95.6,12.88 85.14,7.33 74,5.54 Z" fill="#EB8F00"/>
  <path d="M96.71,39.56 C93.94,38.76 91,40.13 89.83,42.77 C84.68,52.14 78.21,60.71 70.62,68.24 C63.1,75.83 54.52,82.3 45.15,87.44 C42.52,88.62 41.16,91.55 41.94,94.32 C42.76,97.07 45.51,98.42 48.1,99.39 C62.61,104.82 78.58,100.78 90.85,88.58 L90.97,88.47 C103.16,76.2 107.2,60.23 101.77,45.71 C100.81,43.13 99.45,40.37 96.71,39.56 Z" fill="#422B0D"/>
  <path d="M90.08,87.58 L90.02,87.64 L90.02,87.7 L90.08,87.58 Z" fill="#422B0D"/>
  <path d="M71.61,69 L71.5,69.1 L71.4,69.21 L71.61,69 Z" fill="#422B0D"/>
  <path d="M71.61,69 L71.5,69.1 L71.4,69.21 L71.61,69 Z" fill="#422B0D"/>
  <path d="M90.08,87.58 L90.02,87.64 L90.02,87.7 L90.08,87.58 Z" fill="#422B0D"/>
  <path d="M99.4,74.38 C98.89,74.38 98.4,74.45 97.92,74.49 C92.49,74.84 87.39,77.21 83.62,81.13 C79.58,85.01 77.02,90.19 76.38,95.76 C76.32,96.25 76.26,96.76 76.23,97.24 C76.2,97.72 76.31,98.12 76.37,98.52 C81.78,96.14 86.69,92.77 90.85,88.58 L90.97,88.47 C94.98,84.48 98.24,79.8 100.59,74.66 C100.2,74.54 99.8,74.45 99.4,74.38 Z" fill="#ED7770"/>
  <path d="M89.83,42.77 C84.68,52.14 78.21,60.71 70.62,68.24 C63.1,75.83 54.52,82.3 45.15,87.44 C42.52,88.62 41.16,91.55 41.94,94.32 C42.07,94.73 42.24,95.12 42.46,95.49 C42.87,95.35 43.26,95.19 43.65,95 C56.42,90.76 68,83.54 77.41,73.92 C86.64,64.89 93.68,53.88 98,41.71 C98.17,41.3 98.32,40.88 98.45,40.45 C97.93,40.05 97.34,39.74 96.71,39.56 C93.94,38.76 91,40.13 89.83,42.77 Z" fill="#FFFFFF"/>
  <path d="M71.4,69.74 L71.4,69.74 C77.27,64.06 81.11,58.48 85.73,51.68 C86.88,49.98 87.97,48.24 89.02,46.45 L89.78,45.1 C89.98,44.75 90.2,44.41 90.46,44.1 C90.92,43.53 91.51,43.09 92.19,42.81 C93.77,42.23 95.5,42.2 97.1,42.73 C100.35,44.29 103.18,49.85 102.82,48.81 C102.82,48.81 102.23,46.48 102.21,46.45 C101.41,44.45 100.59,42.19 98.52,40.45 C96.3,38.76 93.34,38.42 90.8,39.57 C89.61,40.11 88.58,40.94 87.8,41.98 C87.42,42.46 87.08,42.98 86.8,43.53 L86.13,44.85 C85.2,46.6 84.21,48.33 83.13,50.02 C79.29,56.43 74.76,62.4 69.62,67.82 L69.62,67.82 L69.46,67.98 L69.46,67.98 C64.15,73.06 58.3,77.53 52,81.31 C50.3,82.31 48.58,83.31 46.83,84.31 L45.47,85 C44.92,85.28 44.4,85.61 43.92,86 C42.87,86.78 42.04,87.81 41.5,89 C40.43,91.52 40.81,94.43 42.5,96.59 C45.19,100.1 51.33,100.59 51.36,100.59 C52.36,100.95 46.3,98.37 44.74,95.12 C44.19,93.58 44.19,91.89 44.74,90.35 C45,89.65 45.43,89.03 46,88.55 C46.31,88.29 46.65,88.07 47,87.88 L48.35,87.12 C50.13,86.12 51.87,84.97 53.58,83.82 C60.37,79.2 65.58,75.82 71.23,69.9" fill="#EB8F00"/>
  <path d="M115.13,31.34 C116.33,38.98 109.31,46.22 102.94,47.08 C98.46,47.68 93.46,46.65 85.94,44.78 C84.83,44.57 83.7,44.24 82.46,43.93 C77.88,42.66 73.38,41.13 68.97,39.35 C68.1,39.03 67.62,38.11 67.84,37.22 C67.97,36.84 68.23,36.51 68.56,36.29 C71.93,32.83 75.73,29.81 79.85,27.29 C90.26,20.85 94.22,19.98 98.7,19.38 C104.88,18.37 113.83,23 115.13,31.34 Z" fill="url(#SVGID_1_)"/>
  <path d="M105.52,24.19 C108.43,25.57 108.45,29.56 104.01,30.19 C101.16,30.57 86.49,31.95 88.2,29.24 C91,24.79 101.41,22.24 105.52,24.19 Z" fill="#81D4FA"/>
  <path d="M72.65,31.1 L63.42,39.38 L66.84,26.23 C66.87,26.07 66.9,25.92 66.91,25.76 C67.29,23.48 65.74,21.32 63.46,20.95 C62.92,20.86 62.36,20.88 61.82,21 C59.39,21.67 57.63,23.79 57.43,26.3 C56.86,32.11 55.52,45.8 55,51.13 C54.84,51.66 55.14,52.22 55.67,52.38 C56.02,52.49 56.4,52.39 56.66,52.13 L77.35,39.05 L77.76,38.76 C80.26,36.84 80.87,33.18 78.85,31.06 C77.31,29.44 74.65,29.57 72.65,31.1 Z" fill="#422B0D"/>
  <path d="M25.9,104 C25.54,99.69 25.53,95.81 29.42,84.74 C30.94,80.36 33,76.19 35.55,72.32 C35.69,71.96 35.95,71.66 36.28,71.46 C37.07,71.06 38.03,71.33 38.51,72.07 C41.08,75.83 43.43,79.73 45.57,83.75 C46.11,84.85 46.65,85.83 47.08,86.83 C50.38,93.52 52.37,97.99 52.73,102.3 C53.24,108.43 47.91,116.49 40.52,116.95 C32.47,117.41 26.28,110 25.9,104 Z" fill="url(#SVGID_2_)"/>
  <path d="M33,92.17 C35.17,90 36.9,104 37.13,106.75 C37.48,111.03 33.74,111.83 31.86,109.4 C29.18,106 29.43,95.69 33,92.17 Z" fill="#81D4FA"/>
  <path d="M30.17,78.76 L36.83,68.29 L24.42,73.83 L24,74 C21.81,74.74 19.43,73.57 18.68,71.38 C18.5,70.86 18.43,70.31 18.47,69.76 C18.73,67.25 20.53,65.17 22.98,64.56 L47,58.05 C47.5,57.81 48.1,58.02 48.34,58.52 C48.5,58.85 48.47,59.24 48.25,59.53 L38.78,82.08 C38.72,82.24 38.65,82.39 38.57,82.54 C37.09,85.32 33.57,86.54 31.15,84.88 C29.3,83.62 29,81 30.17,78.76 Z" fill="#422B0D"/>
</svg>
